app/assets/images/heroicons/micro/presentation-chart-line.svg

<svg width="16" height="16" viewBox="0 0 16 16" fill="none" xmlns="http://www.w3.org/2000/svg">
<path fill-rule="evenodd" clip-rule="evenodd" d="M1.75 2C1.33579 2 1 2.33579 1 2.75C1 3.16421 1.33579 3.5 1.75 3.5H2V9C2 10.1046 2.89543 11 4 11H4.04271L3.03845 14.0128C2.90746 14.4057 3.11983 14.8305 3.51279 14.9615C3.90575 15.0925 4.33049 14.8801 4.46147 14.4871L4.62385 14H11.3762L11.5385 14.4871C11.6695 14.8801 12.0943 15.0925 12.4872 14.9615C12.8802 14.8305 13.0925 14.4057 12.9616 14.0128L11.9573 11H12C13.1046 11 14 10.1046 14 9V3.5H14.25C14.6642 3.5 15 3.16421 15 2.75C15 2.33579 14.6642 2 14.25 2H1.75ZM10.3762 11L10.8762 12.5H5.12385L5.62385 11H10.3762ZM11.6932 5.16722C12.0262 4.92089 12.0965 4.45124 11.8502 4.11823C11.6038 3.78523 11.1342 3.71496 10.8012 3.9613C9.79106 4.70851 8.94722 5.66827 8.33584 6.77521L7.28033 5.7197C6.98744 5.42681 6.51256 5.42681 6.21967 5.7197L4.21967 7.7197C3.92678 8.0126 3.92678 8.48747 4.21967 8.78036C4.51256 9.07326 4.98744 9.07326 5.28033 8.78036L6.75 7.31069L8.02789 8.58858C8.20651 8.7672 8.46305 8.84391 8.7104 8.79265C8.95776 8.74139 9.16269 8.56906 9.25562 8.33417C9.75813 7.06404 10.6099 5.96857 11.6932 5.16722Z" fill="black"/>
</svg>

<svg xmlns="http://www.w3.org/2000/svg" viewBox="0 0 16 16" fill="currentColor" aria-hidden="true" data-slot="icon">
  <path fill-rule="evenodd" d="M1.75 2a.75.75 0 0 0 0 1.5H2V9a2 2 0 0 0 2 2h.043l-1.005 3.013a.75.75 0 0 0 1.423.474L4.624 14h6.752l.163.487a.75.75 0 0 0 1.423-.474L11.957 11H12a2 2 0 0 0 2-2V3.5h.25a.75.75 0 0 0 0-1.5H1.75Zm8.626 9 .5 1.5H5.124l.5-1.5h4.752Zm1.317-5.833a.75.75 0 0 0-.892-1.206 8.789 8.789 0 0 0-2.465 2.814L7.28 5.72a.75.75 0 0 0-1.06 0l-2 2a.75.75 0 0 0 1.06 1.06l1.47-1.47L8.028 8.59a.75.75 0 0 0 1.228-.255 7.275 7.275 0 0 1 2.437-3.167Z" clip-rule="evenodd"/>
</svg>
